icons/settings.svg

<?xml version="1.0" encoding="UTF-8" standalone="no"?>
<svg
   viewBox="0 0 16 16"
   version="1.1"
   id="svg6"
   sodipodi:docname="settings.svg"
   inkscape:version="1.2.2 (b0a8486541, 2022-12-01)"
   xmlns:inkscape="http://www.inkscape.org/namespaces/inkscape"
   xmlns:sodipodi="http://sodipodi.sourceforge.net/DTD/sodipodi-0.dtd"
   xmlns="http://www.w3.org/2000/svg"
   xmlns:svg="http://www.w3.org/2000/svg">
  <sodipodi:namedview
     id="namedview8"
     pagecolor="#ffffff"
     bordercolor="#000000"
     borderopacity="0.25"
     inkscape:showpageshadow="2"
     inkscape:pageopacity="0.0"
     inkscape:pagecheckerboard="0"
     inkscape:deskcolor="#d1d1d1"
     showgrid="false"
     inkscape:zoom="51.6875"
     inkscape:cx="8.019347"
     inkscape:cy="8.019347"
     inkscape:window-width="960"
     inkscape:window-height="1008"
     inkscape:window-x="960"
     inkscape:window-y="0"
     inkscape:window-maximized="0"
     inkscape:current-layer="svg6" />
  <defs
     id="defs3051">
    <style
       type="text/css"
       id="current-color-scheme">
      .ColorScheme-Text {
        color:#232629;
      }
      </style>
  </defs>
  <path
     style="fill:#8d8f91;fill-opacity:1;stroke:none"
     d="M 10 2.5 C 9.0680195 2.5 8.2844627 3.1373007 8.0625 4 L 2 4 L 2 5 L 8.0625 5 C 8.2844627 5.8626993 9.0680195 6.5 10 6.5 C 10.931981 6.5 11.715537 5.8626993 11.9375 5 L 14 5 L 14 4 L 11.9375 4 C 11.715537 3.1373007 10.931981 2.5 10 2.5 z M 5 9.5 C 4.0680191 9.5 3.2844626 10.137301 3.0625 11 L 2 11 L 2 12 L 3.0625 12 C 3.2844626 12.862699 4.0680191 13.5 5 13.5 C 5.9319809 13.5 6.7155374 12.862699 6.9375 12 L 7 12 L 9 12 L 14 12 L 14 11 L 9 11 L 7 11 L 6.9375 11 C 6.7155374 10.137301 5.9319809 9.5 5 9.5 z M 5 10.5 C 5.55228 10.5 6 10.94772 6 11.5 C 6 12.05228 5.55228 12.5 5 12.5 C 4.44772 12.5 4 12.05228 4 11.5 C 4 10.94772 4.44772 10.5 5 10.5 z "
     class="ColorScheme-Text"
     id="path4" />
</svg>

<?xml version="1.0" encoding="UTF-8"?>
<svg id="svg6" version="1.1" viewBox="0 0 16 16" xmlns="http://www.w3.org/2000/svg">
 <defs id="defs3051">
  <style id="current-color-scheme" type="text/css">.ColorScheme-Text {
        color:#232629;
      }</style>
 </defs>
 <path id="path4" class="ColorScheme-Text" d="m10 2.5c-0.93198 0-1.7155 0.6373-1.9375 1.5h-6.0625v1h6.0625c0.22196 0.8627 1.0055 1.5 1.9375 1.5 0.93198 0 1.7155-0.6373 1.9375-1.5h2.0625v-1h-2.0625c-0.22196-0.8627-1.0055-1.5-1.9375-1.5zm-5 7c-0.93198 0-1.7155 0.6373-1.9375 1.5h-1.0625v1h1.0625c0.22196 0.8627 1.0055 1.5 1.9375 1.5s1.7155-0.6373 1.9375-1.5h7.0625v-1h-7.0625c-0.22196-0.8627-1.0055-1.5-1.9375-1.5zm0 1c0.55228 0 1 0.44772 1 1s-0.44772 1-1 1-1-0.44772-1-1 0.44772-1 1-1z" fill="#8d8f91"/>
</svg>
